!!!COM: Gomółka, Mikołaj
!!!CDT: ~1535-after 1591
!!!OTL: Królu niebieski
!!!OTL@LAT: Ad te, Domine
!!!AGn: Motet; Psalm
!!!SCn: Gom2028
!!!SCn: Gom2028
!!!voices: 4
**kern	**kern	**kern	**kern
*staff4	*staff3	*staff2	*staff1
*Ivox	*Ivox	*Ivox	*Ivox
*I"Bassus	*I"Tenor	*I"Altus	*I"Cantus
*I'B	*I'T	*I'A	*I'C
*clefF4	*clefGv2	*clefGv2	*clefG2
*k[b-]	*k[b-]	*k[b-]	*k[b-]
*M2/1	*M2/1	*M2/1	*M2/1
*met(C|)	*met(C|)	*met(C|)	*met(C|)
=1-	=1-	=1-	=1-
1G	1G	1d	1g
2.d	2G	2d	2g
.	[2G	2g	2g
4c	.	.	.
=2	=2	=2	=2
2.B-	2G]	4b-	1dd
.	.	4a	.
.	4d	4g	.
4A	4c	4f#	.
4G	4B-	4g	2dd
4F#	4A	4a	.
2G	2B-	2g	[2dd
=3	=3	=3	=3
2D	2A	2f	4dd]
.	.	.	4cc
2D	2d	2f#	4b-
.	.	.	4a
2G	1B-	2.g	1b-
2G	.	.	.
.	.	4fni	.
=4	=4	=4	=4
2A	2c#	2e	2a
2B-	2.d	4d	2g
.	.	4e	.
1A	.	4f	1a
.	8c#	8e	.
.	8Bni	8d	.
.	8c#	8e	.
.	4d	8f	.
.	.	4e	.
.	8c#	.	.
=5	=5	=5	=5
2D	2d	2f#	2a
2d	2f	2a	2dd
2c	2e	2cc	2ee
4B-	4d	2fni	2ff
4A	4c	.	.
=6	=6	=6	=6
4G	4B-	1b-	1gg
4A	4c	.	.
4B-	4d	.	.
4c	4e	.	.
2d	4f	2a	2ff
.	4d	.	.
2G	2g	2b-	2dd
=7	=7	=7	=7
2.D	1f	1a	2.ff
4E	.	.	4ee
4F	2f	2.a	2dd
4G	.	.	.
2A	2e	.	2cc#
.	.	4g	.
=8	=8	=8	=8
2D	2d	2f#	2dd
2.G	2B-	2g	2dd
.	2B-	2.g	2b-
4F	.	.	.
4E-	2B-	.	2b-
4D	.	4fni	.
=9	=9	=9	=9
4C	1c	4e-	1ee-i
4BB-	.	4d	.
2C	.	4e-	.
.	.	4f	.
2G	2B-	4g	2dd
.	.	4a	.
2G	2d	4b-	2dd
.	.	4a	.
=10	=10	=10	=10
2E-	4e-i	4g	4cc
.	4d	4f	4b-
2G	4d	4d	2b-
.	8c	4e	.
.	8B-	.	.
2F	2c	2.f	2b-
2F	2c	.	2a
.	.	4e-	.
=11	=11	=11	=11
1BB-	1B-	1d	1b-
1D	2.A	1d	2.f
.	4B-	.	4g
=12	=12	=12	=12
2C	4c	2e-	4a
.	4B-	.	4g
2E-	4A	2c	1g
.	4G	.	.
1D	1A	1d	.
.	.	.	2f#i
=13	=13	=13	=13
0G	0G	0d	0g
==	==	==	==
*-	*-	*-	*-
!!!CNT: Polish
!!!OCY: Poland
!!!LYR: Jan Kochanowski (1530-1584/08/22)
!!!GTL: Melodiae na Psałterz Polski
!!!EFL: 28/150
!!!PPR: Łazarz Andrysowicz
!!!PPP: Kraków
!!!PDT: 1580
!!!YEC: 2015 Marcin Konik
!!!ENC: Marcin Konik
!!!END: 2015/05/19
!!!EED: Marcin Konik
!!!EEV: 2015/05/19
!!!ONB: Translated from MusicXML and edited on 2015/03/06 by Marcin Konik
!!!CharacterEncoding: utf-8
!!muse2ps: i2I150v85,85,85,150Q16
!!title: @{OTL}, @{GTL}, ed. @{ENC}
